X: 19
T: Newcastle Hornpipe
R: hornpipe, reel
M: C|
L: 1/8
Z: 2010 John Chambers <jc:trillian.mit.edu>
B: 19th century tune book collected by W.A. Cocks.
F: http://www.asaplive.com/archive/browse_by_collection.asp
N: The asaplive.com web site is complex, and links to its files don't usually work.
K: A
e2 | a2cd e2EG | A2CC E2A2 | d2fd cec2 | B2ba gefg | a2Ac e2
EG | A2CC E2c2 | dfed cBAG | B2A2 A2 :||: ce | ecAa fdBg | gefg a2ag |
f2fe dcBA | GBe^d e2fg | a2ag f2fe | dcBA GFED | CEAc edBG | B2A2 A2 :|


%%sep 5 1 500

